file/mynetworktv.svg

<svg clip-rule="evenodd" fill-rule="evenodd" stroke-linejoin="round" stroke-miterlimit="1.41421" viewBox="0 0 560 400" xmlns="http://www.w3.org/2000/svg"><path d="m261.83539952799 100.01449874198h7.12166651081v199.99931138808h-7.12166651081z" fill="#fff" stroke-width="9.8774847584"/><path d="m138.25818771565 198.02877999958h252.38949054664v5.45237158664h-252.38949054664z" fill="#fff" stroke-width="9.8774847584"/><g fill-rule="nonzero"><path d="m746.391 630.087h8.496v10.013h-4.171-4.325-4.171v-3.755-1.652-.851c0-2.074 1.867-3.755 4.171-3.755" fill="#0a92ce" transform="matrix(9.8774847584 0 0 9.8774847584 -7193.008549664 -6123.660240224)"/><path d="m746.391 650.335h8.496v-3.755-2.503-3.754h-4.171-4.325-4.171v6.257c0 2.074 1.867 3.755 4.171 3.755" fill="#b1b3b6" transform="matrix(9.8774847584 0 0 9.8774847584 -7193.008549664 -6123.660240224)"/><path d="m763.602 650.335h-2.602-1.692-4.172v-3.755-2.503-3.754h12.637v6.257c-.001 2.074-1.868 3.755-4.171 3.755" fill="#93cff2" transform="matrix(9.8774847584 0 0 9.8774847584 -7193.008549664 -6123.660240224)"/><path d="m763.602 630.087h-2.602-1.692-4.172v10.013h12.637v-3.755-1.652-.851c-.001-2.074-1.868-3.755-4.171-3.755" fill="#636466" transform="matrix(9.8774847584 0 0 9.8774847584 -7193.008549664 -6123.660240224)"/><path d="m748.188 635.007c.207-.405.475-.715.805-.93.33-.216.696-.323 1.099-.323.762 0 1.348.24 1.757.719.411.48.616 1.167.616 2.063v3.57h-1.428v-2.756-.255c0-.694-.098-1.188-.293-1.482-.196-.295-.518-.441-.965-.441-.474 0-.813.169-1.019.507-.204.337-.307.925-.307 1.763v2.665h-1.428v-2.756c0-.004-.002-.034-.005-.09-.004-.057-.007-.112-.007-.165 0-.697-.099-1.193-.297-1.485-.197-.292-.523-.438-.979-.438-.452 0-.781.174-.987.521-.205.348-.308.931-.308 1.749v2.665h-1.459v-6.226h1.414v.708c.219-.291.468-.503.747-.636.278-.133.608-.198.989-.198.472 0 .878.104 1.222.314.345.207.622.521.833.937" fill="#fff" transform="matrix(9.8774847584 0 0 9.8774847584 -7193.008549664 -6123.660240224)"/><path d="m758.271 633.88-3.362 8.241h-1.505l.867-2.19-2.248-6.051h1.529l1.521 4.347 1.669-4.347z" fill="#fff" transform="matrix(9.8774847584 0 0 9.8774847584 -7193.008549664 -6123.660240224)"/><path d="m33.256 249.008 13.983-31.003h119.22l58.138 137.302 58.874-136.564h39.74l-80.216 180.117h-34.589l-69.176-148.375h-27.966v148.375h-39.004v-149.852z" transform="matrix(.546448 0 0 .546448 245.134522528 81.949149392)"/><path d="m-75.375 590.781c-.352 0-.935.017-1.75.063s-1.736.21-2.75.531-2.055.842-3.156 1.531c-1.102.689-2.138 1.682-3.063 2.969h-.125v-4.062h-6.406v38.187h6.875v-20.844c0-3.858.863-6.79 2.625-8.812s4.122-3.031 7.031-3.031c2.292 0 4.048.472 5.281 1.437 1.234.965 2.146 2.128 2.719 3.438.573 1.309.881 2.604.969 3.937s.156 2.39.156 3.125v20.75h6.875v-22.625c-.044-2.159-.281-4-.656-5.562s-.907-2.978-1.656-4.219c-1.322-2.16-3.118-3.837-5.344-5.031-2.226-1.195-4.76-1.782-7.625-1.782z" fill="#0a92ce" transform="matrix(.5464473346 0 0 .5464473346 334.705 -145.553)"/><path d="m-34.469 590.781c-2.599 0-5.012.489-7.281 1.5s-4.272 2.427-5.969 4.219c-1.696 1.792-3.039 3.917-4.031 6.375s-1.469 5.09-1.469 7.938c0 2.711.468 5.283 1.438 7.718.969 2.435 2.294 4.6 3.968 6.438 1.675 1.838 3.637 3.295 5.907 4.375 2.269 1.079 4.711 1.594 7.312 1.594 1.41 0 2.96-.22 4.656-.657 1.697-.437 3.361-1.137 4.969-2.125 1.609-.988 3.121-2.315 4.531-3.968 1.411-1.654 2.556-3.706 3.438-6.188h-6.875c-.838 1.655-2.153 3.128-3.938 4.438-1.784 1.309-3.944 1.968-6.5 1.968-1.145 0-2.359-.203-3.593-.593-1.234-.391-2.407-.994-3.532-1.844-1.124-.851-2.11-1.941-2.968-3.25-.859-1.309-1.497-2.881-1.938-4.719h30.344c.044-.23.081-.75.125-1.531s.062-1.482.062-2.125c0-2.803-.517-5.392-1.531-7.781-1.014-2.39-2.375-4.474-4.094-6.219-1.718-1.746-3.69-3.106-5.937-4.094s-4.626-1.469-7.094-1.469zm-.062 6.532c1.631 0 3.152.325 4.562.968s2.661 1.497 3.719 2.532c1.058 1.034 1.883 2.207 2.5 3.562s.974 2.715 1.062 4.094h-23.656c.088-1.379.414-2.739 1.031-4.094.618-1.355 1.474-2.528 2.532-3.562 1.057-1.035 2.268-1.889 3.656-2.532s2.919-.968 4.594-.968z" fill="#0a92ce" transform="matrix(.5464473346 0 0 .5464473346 334.705 -145.553)"/><path d="m-8.125 579v12.813h-4.938v6.531h4.938v31.656h6.875v-31.656h6.031v-6.531h-6.031v-12.813z" fill="#0a92ce" transform="matrix(.5464473346 0 0 .5464473346 334.705 -145.553)"/><path d="m5.875 591.813 13.656 38.187h3.782l7.937-25.719h.125l7.938 25.719h3.843l13.532-38.187h-7.344l-8.063 24.812h-.125l-7.593-24.812h-4.5l-7.594 24.812h-.125l-8.156-24.812z" fill="#0a92ce" transform="matrix(.5464473346 0 0 .5464473346 334.705 -145.553)"/><path d="m78.75 590.781c-2.456.121-4.711.692-6.812 1.657-2.402 1.102-4.488 2.559-6.25 4.375-1.763 1.815-3.165 3.892-4.157 6.281-.992 2.388-1.469 4.912-1.468 7.531-.001 2.436.44 4.838 1.343 7.25.904 2.412 2.21 4.602 3.907 6.531 1.696 1.93 3.773 3.501 6.218 4.719 2.446 1.218 5.196 1.813 8.282 1.813 3.085 0 5.875-.603 8.343-1.844s4.545-2.821 6.219-4.75c1.674-1.93 2.941-4.111 3.844-6.5s1.375-4.751 1.375-7.094c0-2.712-.518-5.284-1.531-7.719-1.014-2.435-2.403-4.56-4.188-6.375s-3.879-3.256-6.281-4.312c-2.402-1.057-5.006-1.563-7.781-1.563-.359 0-.712-.017-1.063 0zm1.063 6.532c1.939 0 3.726.398 5.312 1.156s2.939 1.767 4.063 3.031c1.123 1.264 1.976 2.674 2.593 4.281.618 1.608.938 3.268.938 4.969 0 1.792-.33 3.534-.969 5.188-.64 1.653-1.551 3.111-2.719 4.375-1.167 1.263-2.529 2.264-4.093 3-1.565.735-3.275 1.093-5.125 1.093-1.94 0-3.686-.397-5.25-1.156-1.565-.759-2.918-1.776-4.063-3.062-1.145-1.287-2.039-2.737-2.656-4.344-.618-1.608-.907-3.284-.906-5.031-.001-1.7.288-3.339.906-4.969.617-1.631 1.501-3.08 2.625-4.344 1.123-1.264 2.476-2.273 4.062-3.031s3.342-1.156 5.282-1.156z" fill="#0a92ce" transform="matrix(.5464473346 0 0 .5464473346 334.705 -145.553)"/><path d="m122.5 590.781c-.441 0-1.032.025-1.781.094s-1.556.264-2.438.562c-.881.299-1.784.747-2.687 1.344-.903.598-1.7 1.412-2.406 2.469h-.125v-3.438h-6.407v38.188h6.875v-20.906c0-2.757.394-4.882 1.188-6.375.793-1.494 1.742-2.546 2.844-3.188.837-.46 1.717-.801 2.687-1.031s1.721-.344 2.25-.344z" fill="#0a92ce" transform="matrix(.5464473346 0 0 .5464473346 334.705 -145.553)"/><path d="m128.469 579v51h6.875v-19.781-31.219zm20.031 12.813-13 18.406 14.656 19.781h8.594l-15.406-20.219 13.281-17.968z" fill="#0a92ce" transform="matrix(.5464473346 0 0 .5464473346 334.705 -145.553)"/></g></svg>

<?xml version="1.0" encoding="UTF-8" standalone="no"?>
<!DOCTYPE svg PUBLIC "-//W3C//DTD SVG 1.1//EN" "http://www.w3.org/Graphics/SVG/1.1/DTD/svg11.dtd">
<svg width="100%" height="100%" viewBox="0 0 560 400" version="1.1" xmlns="http://www.w3.org/2000/svg" xmlns:xlink="http://www.w3.org/1999/xlink" xml:space="preserve" xmlns:serif="http://www.serif.com/" style="fill-rule:evenodd;clip-rule:evenodd;stroke-linejoin:round;stroke-miterlimit:1.41421;">
    <g transform="matrix(0.546448,0,0,0.546448,334.705,-145.553)">
        <g id="g3027" transform="matrix(1,0,0,1,-359.518,449.362)">
            <g id="rect19" transform="matrix(18.0758,0,0,18.0758,-13416.2,-11389.3)">
                <rect x="754.731" y="630.087" width="0.721" height="20.248" style="fill:white;"/>
            </g>
            <g id="rect21" transform="matrix(18.0758,0,0,18.0758,-13416.2,-11389.3)">
                <rect x="742.22" y="640.01" width="25.552" height="0.552" style="fill:white;"/>
            </g>
            <g id="path23" transform="matrix(18.0758,0,0,18.0758,-13416.2,-11389.3)">
                <path d="M746.391,630.087L754.887,630.087L754.887,640.1L750.716,640.1L746.391,640.1L742.22,640.1L742.22,636.345L742.22,634.693L742.22,633.842C742.22,631.768 744.087,630.087 746.391,630.087" style="fill:rgb(10,146,206);fill-rule:nonzero;"/>
            </g>
            <g id="path25" transform="matrix(18.0758,0,0,18.0758,-13416.2,-11389.3)">
                <path d="M746.391,650.335L754.887,650.335L754.887,646.58L754.887,644.077L754.887,640.323L750.716,640.323L746.391,640.323L742.22,640.323L742.22,646.58C742.22,648.654 744.087,650.335 746.391,650.335" style="fill:rgb(177,179,182);fill-rule:nonzero;"/>
            </g>
            <g id="path27" transform="matrix(18.0758,0,0,18.0758,-13416.2,-11389.3)">
                <path d="M763.602,650.335L761,650.335L759.308,650.335L755.136,650.335L755.136,646.58L755.136,644.077L755.136,640.323L767.773,640.323L767.773,646.58C767.772,648.654 765.905,650.335 763.602,650.335" style="fill:rgb(147,207,242);fill-rule:nonzero;"/>
            </g>
            <g id="path29" transform="matrix(18.0758,0,0,18.0758,-13416.2,-11389.3)">
                <path d="M763.602,630.087L761,630.087L759.308,630.087L755.136,630.087L755.136,640.1L767.773,640.1L767.773,636.345L767.773,634.693L767.773,633.842C767.772,631.768 765.905,630.087 763.602,630.087" style="fill:rgb(99,100,102);fill-rule:nonzero;"/>
            </g>
            <g id="path39" transform="matrix(18.0758,0,0,18.0758,-13416.2,-11389.3)">
                <path d="M748.188,635.007C748.395,634.602 748.663,634.292 748.993,634.077C749.323,633.861 749.689,633.754 750.092,633.754C750.854,633.754 751.44,633.994 751.849,634.473C752.26,634.953 752.465,635.64 752.465,636.536L752.465,640.106L751.037,640.106L751.037,637.35L751.037,637.095C751.037,636.401 750.939,635.907 750.744,635.613C750.548,635.318 750.226,635.172 749.779,635.172C749.305,635.172 748.966,635.341 748.76,635.679C748.556,636.016 748.453,636.604 748.453,637.442L748.453,640.107L747.025,640.107L747.025,637.351C747.025,637.347 747.023,637.317 747.02,637.261C747.016,637.204 747.013,637.149 747.013,637.096C747.013,636.399 746.914,635.903 746.716,635.611C746.519,635.319 746.193,635.173 745.737,635.173C745.285,635.173 744.956,635.347 744.75,635.694C744.545,636.042 744.442,636.625 744.442,637.443L744.442,640.108L742.983,640.108L742.983,633.882L744.397,633.882L744.397,634.59C744.616,634.299 744.865,634.087 745.144,633.954C745.422,633.821 745.752,633.756 746.133,633.756C746.605,633.756 747.011,633.86 747.355,634.07C747.7,634.277 747.977,634.591 748.188,635.007" style="fill:white;fill-rule:nonzero;"/>
            </g>
            <g id="polygon41" transform="matrix(18.0758,0,0,18.0758,-13416.2,-11389.3)">
                <path d="M758.271,633.88L754.909,642.121L753.404,642.121L754.271,639.931L752.023,633.88L753.552,633.88L755.073,638.227L756.742,633.88L758.271,633.88Z" style="fill:white;fill-rule:nonzero;"/>
            </g>
        </g>
        <g id="path3131" transform="matrix(1,0,0,1,-163.914,416.329)">
            <path d="M33.256,249.008L47.239,218.005L166.459,218.005L224.597,355.307L283.471,218.743L323.211,218.743L242.995,398.86L208.406,398.86L139.23,250.485L111.264,250.485L111.264,398.86L72.26,398.86L72.26,249.008L33.256,249.008Z" style="fill-rule:nonzero;"/>
        </g>
        <g id="text3133" transform="matrix(0.979354,0,0,1.02108,0,0)">
            <g id="path3921" transform="matrix(1.02108,0,0,0.979354,0,0)">
                <path d="M-75.375,590.781C-75.727,590.781 -76.31,590.798 -77.125,590.844C-77.94,590.89 -78.861,591.054 -79.875,591.375C-80.889,591.696 -81.93,592.217 -83.031,592.906C-84.133,593.595 -85.169,594.588 -86.094,595.875L-86.219,595.875L-86.219,591.813L-92.625,591.813L-92.625,630L-85.75,630L-85.75,609.156C-85.75,605.298 -84.887,602.366 -83.125,600.344C-81.363,598.322 -79.003,597.313 -76.094,597.313C-73.802,597.313 -72.046,597.785 -70.813,598.75C-69.579,599.715 -68.667,600.878 -68.094,602.188C-67.521,603.497 -67.213,604.792 -67.125,606.125C-67.037,607.458 -66.969,608.515 -66.969,609.25L-66.969,630L-60.094,630L-60.094,607.375C-60.138,605.216 -60.375,603.375 -60.75,601.813C-61.125,600.251 -61.657,598.835 -62.406,597.594C-63.728,595.434 -65.524,593.757 -67.75,592.563C-69.976,591.368 -72.51,590.781 -75.375,590.781Z" style="fill:rgb(10,146,206);fill-rule:nonzero;"/>
            </g>
            <g id="path3923" transform="matrix(1.02108,0,0,0.979354,0,0)">
                <path d="M-34.469,590.781C-37.068,590.781 -39.481,591.27 -41.75,592.281C-44.019,593.292 -46.022,594.708 -47.719,596.5C-49.415,598.292 -50.758,600.417 -51.75,602.875C-52.742,605.333 -53.219,607.965 -53.219,610.813C-53.219,613.524 -52.751,616.096 -51.781,618.531C-50.812,620.966 -49.487,623.131 -47.813,624.969C-46.138,626.807 -44.176,628.264 -41.906,629.344C-39.637,630.423 -37.195,630.938 -34.594,630.938C-33.184,630.938 -31.634,630.718 -29.938,630.281C-28.241,629.844 -26.577,629.144 -24.969,628.156C-23.36,627.168 -21.848,625.841 -20.438,624.188C-19.027,622.534 -17.882,620.482 -17,618L-23.875,618C-24.713,619.655 -26.028,621.128 -27.813,622.438C-29.597,623.747 -31.757,624.406 -34.313,624.406C-35.458,624.406 -36.672,624.203 -37.906,623.813C-39.14,623.422 -40.313,622.819 -41.438,621.969C-42.562,621.118 -43.548,620.028 -44.406,618.719C-45.265,617.41 -45.903,615.838 -46.344,614L-16,614C-15.956,613.77 -15.919,613.25 -15.875,612.469C-15.831,611.688 -15.813,610.987 -15.813,610.344C-15.813,607.541 -16.33,604.952 -17.344,602.563C-18.358,600.173 -19.719,598.089 -21.438,596.344C-23.156,594.598 -25.128,593.238 -27.375,592.25C-29.622,591.262 -32.001,590.781 -34.469,590.781ZM-34.531,597.313C-32.9,597.313 -31.379,597.638 -29.969,598.281C-28.559,598.924 -27.308,599.778 -26.25,600.813C-25.192,601.847 -24.367,603.02 -23.75,604.375C-23.133,605.73 -22.776,607.09 -22.688,608.469L-46.344,608.469C-46.256,607.09 -45.93,605.73 -45.313,604.375C-44.695,603.02 -43.839,601.847 -42.781,600.813C-41.724,599.778 -40.513,598.924 -39.125,598.281C-37.737,597.638 -36.206,597.313 -34.531,597.313Z" style="fill:rgb(10,146,206);fill-rule:nonzero;"/>
            </g>
            <g id="path3925" transform="matrix(1.02108,0,0,0.979354,0,0)">
                <path d="M-8.125,579L-8.125,591.813L-13.063,591.813L-13.063,598.344L-8.125,598.344L-8.125,630L-1.25,630L-1.25,598.344L4.781,598.344L4.781,591.813L-1.25,591.813L-1.25,579L-8.125,579Z" style="fill:rgb(10,146,206);fill-rule:nonzero;"/>
            </g>
            <g id="path3927" transform="matrix(1.02108,0,0,0.979354,0,0)">
                <path d="M5.875,591.813L19.531,630L23.313,630L31.25,604.281L31.375,604.281L39.313,630L43.156,630L56.688,591.813L49.344,591.813L41.281,616.625L41.156,616.625L33.563,591.813L29.063,591.813L21.469,616.625L21.344,616.625L13.188,591.813L5.875,591.813Z" style="fill:rgb(10,146,206);fill-rule:nonzero;"/>
            </g>
            <g id="path3929" transform="matrix(1.02108,0,0,0.979354,0,0)">
                <path d="M78.75,590.781C76.294,590.902 74.039,591.473 71.938,592.438C69.536,593.54 67.45,594.997 65.688,596.813C63.925,598.628 62.523,600.705 61.531,603.094C60.539,605.482 60.062,608.006 60.063,610.625C60.062,613.061 60.503,615.463 61.406,617.875C62.31,620.287 63.616,622.477 65.313,624.406C67.009,626.336 69.086,627.907 71.531,629.125C73.977,630.343 76.727,630.938 79.813,630.938C82.898,630.938 85.688,630.335 88.156,629.094C90.624,627.853 92.701,626.273 94.375,624.344C96.049,622.414 97.316,620.233 98.219,617.844C99.122,615.455 99.594,613.093 99.594,610.75C99.594,608.038 99.076,605.466 98.063,603.031C97.049,600.596 95.66,598.471 93.875,596.656C92.09,594.841 89.996,593.4 87.594,592.344C85.192,591.287 82.588,590.781 79.813,590.781C79.454,590.781 79.101,590.764 78.75,590.781ZM79.813,597.313C81.752,597.313 83.539,597.711 85.125,598.469C86.711,599.227 88.064,600.236 89.188,601.5C90.311,602.764 91.164,604.174 91.781,605.781C92.399,607.389 92.719,609.049 92.719,610.75C92.719,612.542 92.389,614.284 91.75,615.938C91.11,617.591 90.199,619.049 89.031,620.313C87.864,621.576 86.502,622.577 84.938,623.313C83.373,624.048 81.663,624.406 79.813,624.406C77.873,624.406 76.127,624.009 74.563,623.25C72.998,622.491 71.645,621.474 70.5,620.188C69.355,618.901 68.461,617.451 67.844,615.844C67.226,614.236 66.937,612.56 66.938,610.813C66.937,609.113 67.226,607.474 67.844,605.844C68.461,604.213 69.345,602.764 70.469,601.5C71.592,600.236 72.945,599.227 74.531,598.469C76.117,597.711 77.873,597.313 79.813,597.313Z" style="fill:rgb(10,146,206);fill-rule:nonzero;"/>
            </g>
            <g id="path3931" transform="matrix(1.02108,0,0,0.979354,0,0)">
                <path d="M122.5,590.781C122.059,590.781 121.468,590.806 120.719,590.875C119.97,590.944 119.163,591.139 118.281,591.437C117.4,591.736 116.497,592.184 115.594,592.781C114.691,593.379 113.894,594.193 113.188,595.25L113.063,595.25L113.063,591.812L106.656,591.812L106.656,630L113.531,630L113.531,609.094C113.531,606.337 113.925,604.212 114.719,602.719C115.512,601.225 116.461,600.173 117.563,599.531C118.4,599.071 119.28,598.73 120.25,598.5C121.22,598.27 121.971,598.156 122.5,598.156L122.5,590.781L122.5,590.781Z" style="fill:rgb(10,146,206);fill-rule:nonzero;"/>
            </g>
            <g id="path3933" transform="matrix(1.02108,0,0,0.979354,0,0)">
                <path d="M128.469,579L128.469,630L135.344,630L135.344,610.219L135.344,579L128.469,579ZM148.5,591.813L135.5,610.219L150.156,630L158.75,630L143.344,609.781L156.625,591.813L148.5,591.813Z" style="fill:rgb(10,146,206);fill-rule:nonzero;"/>
            </g>
        </g>
    </g>
</svg>
